X:909
T:Anglais efter Per Nilsson Dahlberg
T:(SvL Skåne nr. 227)
S:efter Per Nilsson Dahlberg
S:Svenska Låtar Skåne nr 227
B:Svenska Låtar Skåne
R:Anglais
Z:Patrik Månsson, 2009-01-03
O:Nymö, Skåne
M:2/4
L:1/16
K:F
|: F2A2 c2f2 | (ef)ge (fa)fc | F2A2 c2f2 | (ef)ge f4 :|
|: egec fafc | gbge fafc | egec fafc | (gb)ge f4 :|

(:musicend:)


(:music:)
